X:3
T:Waiting for Dinner
R:jig
C:Henrik Norbeck
H:July 1990
M:6/8
K:Bm
~f3 efe|dBA BAF|~A3 BAB|dff ede|f2f ~e3|d/e/fd BAF|~A3 BAB|dBA B3:|
|:~f3 efe|def a2f|aba fdB|AFA Bcd|f2f ~e3|dBA FEF|ABd efe|1 dBB B3:|2 dBB B2A||
|:~F3 ~B3|d/e/fd ede|fdB AFA|~B3 AFE|~F3 ~B3|dB/c/d ede|fab afe|1 dBA B2A:|2 dBA B3||

